polaris-icons/icons/newicons/ResourcesMajor.svg

<svg width="20" height="20" viewBox="0 0 20 20" fill="none" xmlns="http://www.w3.org/2000/svg">
<path fill-rule="evenodd" clip-rule="evenodd" d="M6.67082 3.66475C6.85606 4.03524 6.70589 4.48574 6.33541 4.67098L5.18158 5.2479C4.84679 5.41529 4.60464 5.72391 4.52168 6.08891L3.68958 9.75016H7.75C8.44803 9.75016 9.05061 10.1589 9.33151 10.75H10.9999C11.456 10.1428 12.1821 9.75013 13 9.75013H16.3104L15.4635 6.02348C15.3859 5.6821 15.1687 5.3889 14.8647 5.21521L13.8779 4.65131C13.5183 4.4458 13.3933 3.98766 13.5988 3.62802C13.8043 3.26839 14.2625 3.14344 14.6221 3.34895L15.6089 3.91284C16.2776 4.29497 16.7555 4.94001 16.9262 5.69105L18 10.416V12.2501C18 14.3212 16.3211 16.0001 14.25 16.0001C12.1789 16.0001 10.5 14.3212 10.5 12.2501C10.5 12.2501 10.5 12.2502 10.5 12.2501L9.5 12.25C9.5 14.3211 7.82107 16.0002 5.75 16.0002C3.67893 16.0002 2 14.3212 2 12.2502V10.416L3.05899 5.75647C3.24148 4.95348 3.77423 4.27453 4.51076 3.90626L5.66459 3.32934C6.03507 3.1441 6.48558 3.29427 6.67082 3.66475ZM3.5 11.2502H7.75C7.88807 11.2502 8 11.3621 8 11.5002V12.2502C8 13.4928 6.99264 14.5002 5.75 14.5002C4.50736 14.5002 3.5 13.4928 3.5 12.2502V11.2502ZM16.5 11.2501H13C12.4477 11.2501 12 11.6978 12 12.2501C12 13.4928 13.0074 14.5001 14.25 14.5001C15.4926 14.5001 16.5 13.4928 16.5 12.2501V11.2501Z" fill="black"/>
</svg>

<svg viewBox="0 0 20 20" fill="none" xmlns="http://www.w3.org/2000/svg"><path fill-rule="evenodd" clip-rule="evenodd" d="M6.67 3.665a.75.75 0 0 1-.335 1.006l-1.153.577a1.25 1.25 0 0 0-.66.84l-.832 3.662h4.06c.698 0 1.3.409 1.582 1h1.668c.456-.607 1.182-1 2-1h3.31l-.846-3.727a1.25 1.25 0 0 0-.6-.808l-.986-.564a.75.75 0 0 1 .744-1.302l.987.564a2.75 2.75 0 0 1 1.317 1.778l1.074 4.725v1.834a3.75 3.75 0 1 1-7.5 0h-1a3.75 3.75 0 0 1-7.5 0v-1.834l1.059-4.66a2.75 2.75 0 0 1 1.452-1.85l1.154-.577a.75.75 0 0 1 1.006.336Zm-3.17 7.585h4.25a.25.25 0 0 1 .25.25v.75a2.25 2.25 0 0 1-4.5 0v-1Zm13 0h-3.5a1 1 0 0 0-1 1 2.25 2.25 0 1 0 4.5 0v-1Z" fill="#5C5F62"/></svg>
